X: 9660
T: De Saint Paul A Terrebonne
R: reel
M: 4/4
K: Dmajor
DEFG A2 FA|BAFA dAFD|CDEF GECE|DFBF AB Az|
DEFG A2 FA|BAFA dAFD|CDEF GECE|1 DdAF D4:|2 DdAF D2 zd-|dedc||
|:B2-B2 BABc|d2 d2 c2 B2|A2-A2 dFAd|f2-f2 e2d2|c2-c2 cAce|
a2 g2 f2 e2|d3A BAFA|dcde fedc|B2-B2 BABc|
d2 d2 c2 B2|A2-A2 dFAd|f2-f2 e2d2|c2-c2 cAce|
a2 g2 f2 e2|dDEF GABc|1 d3 e fedc:|2 dDEF GABc|d2z DE FG A||

